assets/No mobile phones/Flat/no_mobile_phones_flat.svg

<svg width="32" height="32" viewBox="0 0 32 32" fill="none" xmlns="http://www.w3.org/2000/svg">
<path d="M27.875 15.9375C27.875 22.5304 22.5304 27.875 15.9375 27.875C9.3446 27.875 4 22.5304 4 15.9375C4 9.3446 9.3446 4 15.9375 4C22.5304 4 27.875 9.3446 27.875 15.9375Z" fill="white"/>
<path d="M11 9C11 8.44772 11.4477 8 12 8H20C20.5523 8 21 8.44772 21 9V23C21 23.5523 20.5523 24 20 24H12C11.4477 24 11 23.5523 11 23V9ZM13 9.5C13 9.22386 13.2239 9 13.5 9H18.5C18.7761 9 19 9.22386 19 9.5C19 9.77614 18.7761 10 18.5 10H13.5C13.2239 10 13 9.77614 13 9.5ZM12.25 11C12.1119 11 12 11.1119 12 11.25V21.75C12 21.8881 12.1119 22 12.25 22H19.75C19.8881 22 20 21.8881 20 21.75V11.25C20 11.1119 19.8881 11 19.75 11H12.25Z" fill="black"/>
<path d="M16 30C23.732 30 30 23.732 30 16C30 8.26801 23.732 2 16 2C8.26801 2 2 8.26801 2 16C2 23.732 8.26801 30 16 30ZM22.6453 24.7666C20.7991 26.1682 18.4967 27 16 27C9.92487 27 5 22.0751 5 16C5 13.5033 5.8318 11.2009 7.23339 9.35471L22.6453 24.7666ZM24.7666 22.6453L9.35471 7.23339C11.2009 5.8318 13.5033 5 16 5C22.0751 5 27 9.92487 27 16C27 18.4967 26.1682 20.7991 24.7666 22.6453Z" fill="#F8312F"/>
</svg>

<svg xmlns="http://www.w3.org/2000/svg" width="32" height="32" fill="none"><path fill="#fff" d="M27.875 15.938c0 6.592-5.345 11.937-11.938 11.937C9.346 27.875 4 22.53 4 15.937 4 9.346 9.345 4 15.938 4c6.592 0 11.937 5.345 11.937 11.938Z"/><path fill="#000" d="M11 9a1 1 0 0 1 1-1h8a1 1 0 0 1 1 1v14a1 1 0 0 1-1 1h-8a1 1 0 0 1-1-1V9Zm2 .5a.5.5 0 0 1 .5-.5h5a.5.5 0 0 1 0 1h-5a.5.5 0 0 1-.5-.5Zm-.75 1.5a.25.25 0 0 0-.25.25v10.5c0 .138.112.25.25.25h7.5a.25.25 0 0 0 .25-.25v-10.5a.25.25 0 0 0-.25-.25h-7.5Z"/><path fill="#F8312F" d="M16 30c7.732 0 14-6.268 14-14S23.732 2 16 2 2 8.268 2 16s6.268 14 14 14Zm6.645-5.233A10.952 10.952 0 0 1 16 27C9.925 27 5 22.075 5 16c0-2.497.832-4.8 2.233-6.645l15.412 15.412Zm2.122-2.122L9.355 7.233A10.952 10.952 0 0 1 16 5c6.075 0 11 4.925 11 11 0 2.497-.832 4.8-2.233 6.645Z"/></svg>
